src/img/plus.svg

<svg fill="none" height="24" viewBox="0 0 24 24" width="24" xmlns="http://www.w3.org/2000/svg" xmlns:xlink="http://www.w3.org/1999/xlink"><mask id="a" height="16" maskUnits="userSpaceOnUse" width="16" x="4" y="4"><path d="m20 12c0 .6-.4 1-1 1h-6v6c0 .6-.4 1-1 1s-1-.4-1-1v-6h-6c-.6 0-1-.4-1-1s.4-1 1-1h6v-6c0-.6.4-1 1-1s1 .4 1 1v6h6c.6 0 1 .4 1 1z" fill="#fff"/></mask><path d="m20 12c0 .6-.4 1-1 1h-6v6c0 .6-.4 1-1 1s-1-.4-1-1v-6h-6c-.6 0-1-.4-1-1s.4-1 1-1h6v-6c0-.6.4-1 1-1s1 .4 1 1v6h6c.6 0 1 .4 1 1z" fill="#000"/><g mask="url(#a)"><path d="m0 0h24v24h-24z" fill="#6f6f6f"/></g></svg>

<svg width="24" height="24" viewBox="0 0 24 24" fill="none" 
  xmlns="http://www.w3.org/2000/svg">
  <path d="M20 12C20 12.6 19.6 13 19 13H13V19C13 19.6 12.6 20 12 20C11.4 20 11 19.6 11 19V13H5C4.4 13 4 12.6 4 12C4 11.4 4.4 11 5 11H11V5C11 4.4 11.4 4 12 4C12.6 4 13 4.4 13 5V11H19C19.6 11 20 11.4 20 12Z" fill="black"/>
  <mask id="mask0" mask-type="alpha" maskUnits="userSpaceOnUse" x="4" y="4" width="16" height="16">
    <path d="M20 12C20 12.6 19.6 13 19 13H13V19C13 19.6 12.6 20 12 20C11.4 20 11 19.6 11 19V13H5C4.4 13 4 12.6 4 12C4 11.4 4.4 11 5 11H11V5C11 4.4 11.4 4 12 4C12.6 4 13 4.4 13 5V11H19C19.6 11 20 11.4 20 12Z" fill="white"/>
  </mask>
  <g mask="url(#mask0)">
    <rect width="24" height="24" fill="#6F6F6F"/>
  </g>
</svg>
